X:1
T:Stars, 77.77.88.77
T:Stars, 77.77.88.77
T:German Tune
T:Public Domain Courtesy of the Cyber Hymnal™
C:German Tune
Z:Public Domain
Z:Courtesy of the Cyber Hymnal™
%%score ( 1 2 ) 3
L:1/8
Q:1/4=105
M:3/4
K:F
V:1 treble 
V:2 treble 
V:3 bass 
V:1
 F[EG] | [FA]2 [FA]2 [GB][EG] | [Bd]2 [Ac]2 [FA][Ac] | [GB]3 [GB] [Ac][GB] | [FA]4 F[EG] | %5
 [FA]2 [FA]2 [GB][EG] | [Bd]2 [Ac]2 [FA][Ac] | [GB]3 [GB] [Ac][GB] | [FA]4 [Ac][FA] | %9
 [FA]2 [EG]2 [Bd][GB] | [GB]2 [FA]2 [Ac][FA] | [FA]2 [EG]2 [Bd][GB] | [GB]2 [FA]2 F[EG] | %13
 [FA]2 [FA]2 [GB][EG] | [Bd]2 [Ac]2 [FA][Ac] | [GB]3 [^FA] [GB][Ec] | [FA]4 |] %17
V:2
 F x | x6 | x6 | x6 | x4 F x | x6 | x6 | x6 | x6 | x6 | x6 | x6 | x4 F x | x6 | x6 | x6 | x4 |] %17
V:3
 [F,A,][F,C] | [F,C]2 [F,C]2 [F,C][F,C] | [F,C]4 [F,C][F,C] | [C,E]3 [C,C] [C,D][CE] | %4
 [F,C]4 [F,A,][F,C] | [F,C]2 [F,C]2 [F,C][F,C] | [F,C]4 [F,C][F,C] | [C,E]3 [C,C] [C,D][CE] | %8
 [F,C]4 [F,C][F,C] | [C,C]2 [C,C]2 [CE][CE] | [F,C]4 [F,C][F,C] | [C,C]2 [C,C]2 [CE][CE] | %12
 [F,C]4 [F,A,][F,C] | [F,C]2 [F,C]2 [F,C][F,C] | [F,C]4 [F,C][F,C] | [C,C]3 [C,C] [C,C][C,C] | %16
 [F,C]4 |] %17

